X:3
T:Life of the Cause. JJo8.003, The
B:J.Johnson Choice Collection Vol 8 1758
Z:vmp.Simon Wilson 2013 www.village-music-project.org.uk
M:C|
L:1/4
Q:1/2=100
K:A
c2BA|GBB/c/d|c2BA|GBef/g/|acdc/B/|cB/A/Ba|g/a/bB^d|eBE2:|
|:B2cd|ceed/c/|dfed/c/|BGE2|ce/c/df/d/|ef/g/Ta2|c/d/eEG|AEA,2:|
